icons/square-help-outline.svg

<svg xmlns="http://www.w3.org/2000/svg" width="24" height="24" viewBox="0 0 24 24">
  <path d="M19,2 C20.6568542,2 22,3.34314575 22,5 L22,5 L22,19 C22,20.6568542 20.6568542,22 19,22 L19,22 L5,22 C3.34314575,22 2,20.6568542 2,19 L2,19 L2,5 C2,3.34314575 3.34314575,2 5,2 L5,2 Z M19,4 L5,4 C4.44771525,4 4,4.44771525 4,5 L4,5 L4,19 C4,19.5522847 4.44771525,20 5,20 L5,20 L19,20 C19.5522847,20 20,19.5522847 20,19 L20,19 L20,5 C20,4.44771525 19.5522847,4 19,4 L19,4 Z M12,15 C12.5522847,15 13,15.4477153 13,16 C13,16.5522847 12.5522847,17 12,17 C11.4477153,17 11,16.5522847 11,16 C11,15.4477153 11.4477153,15 12,15 Z M12.1,7 C13.8,7 15.1,8.3 15.1,10 C15.1,11.4 14.2,12 13.6,12.4 C13.1454545,12.6727273 13.0214876,12.7801653 13.0027047,12.9477085 L13,13 L13,14 L11,14 L11,13 C11,11.7 11.9,11.1 12.5,10.7 C13,10.4 13.1,10.2 13.1,9.9 C13.1,9.3 12.7,9 12.1,9 C11.75,9 11.4765625,9.153125 11.2796875,9.39238281 L11.2,9.5 L11.1789188,9.53794618 C11.1750832,9.54485031 11.1711627,9.55170695 11.1671582,9.55851454 C10.9184586,9.98130389 10.3968515,10.1440978 9.95782931,9.95473156 L9.85,9.9 L9.84096572,9.89468572 C9.40918266,9.64069568 9.23714337,9.11159999 9.42052358,8.6585764 L9.47382857,8.54710857 L9.5,8.5 C10,7.6 11,7 12.1,7 Z"/>
</svg>

<svg xmlns="http://www.w3.org/2000/svg" viewBox="0 0 24 24">
  <path d="M19 2a3 3 0 0 1 3 3v14a3 3 0 0 1-3 3H5a3 3 0 0 1-3-3V5a3 3 0 0 1 3-3zm0 2H5a1 1 0 0 0-1 1v14a1 1 0 0 0 1 1h14a1 1 0 0 0 1-1V5a1 1 0 0 0-1-1zm-7 11a1 1 0 1 1 0 2 1 1 0 0 1 0-2zm.1-8c1.7 0 3 1.3 3 3 0 1.4-.9 2-1.5 2.4-.45.27-.58.38-.6.55V14h-2v-1c0-1.3.9-1.9 1.5-2.3.5-.3.6-.5.6-.8 0-.6-.4-.9-1-.9a1 1 0 0 0-.82.4l-.08.1-.02.04a.96.96 0 0 1-1.22.41l-.11-.05a1 1 0 0 1-.43-1.24l.05-.11.03-.05C10 7.6 11 7 12.1 7z"/>
</svg>
